X: 29
T: Vous me faittes morir denvie
N: Derived from Com3049-Vous_me_faittes_morir_denvie.krn
C: Loyset Comp\`ere
%%abc-version 2.0
%%abcx-abcm2ps-target-version 5.9.1 (29 Sep 2008)
%%abc-creator hum2abc beta
%%abcx-conversion-date 2019/02/16 20:28:09
%%abc-edited-by Jesse Rodin
%%abc-edited-by Megan K. Eagen 2013/11/29
%%abcx-initial-encoding-date 2013/11/29/
%%humdrum-veritas 3839977544
%%humdrum-veritas-data 1316311961
%%linebreak <none>
%%barnumbers 0
L: 1/4
M: 4/2
Q: 1/2=120
V: 1 clef=treble
V: 2 clef=treble-8
V: 3 clef=bass
K: F
[V:1] G4B4 | 
[V:2] z8 | 
[V:3] G,4G,4 | 
[V:1] A4G4 | 
[V:2] z8 | 
[V:3] F,4B,4- | 
[V:1] F2G4FE | 
[V:2] z8 | 
[V:3] B,4C4 | 
[V:1] D8 | 
[V:2] G4B4 | 
[V:3] D2B,3A,G,2 | 
[V:1] F4G4 | 
[V:2] A4G4 | 
[V:3] F,2D,2E,4 | 
[V:1] A2B4AG | 
[V:2] F2G4FE | 
[V:3] D,2D3B,C2 | 
[V:1] F8 | 
[V:2] D8 | 
[V:3] D6CB, | 
[V:1] FGABc2d2- | 
[V:2] DEFGA2B2 | 
[V:3] A,4z2G,A, | 
[V:1] dcBAB2A2- | 
[V:2] GABcd2DE | 
[V:3] B,CD2D,E,F,G, | 
[V:1] AGFED2G2- | 
[V:2] FGA2B3A/G/ | 
[V:3] A,2D,2G,2E,2 | 
[V:1] G2^F2G4- | 
[V:2] A4G4 | 
[V:3] D,4z2D2- | 
[V:1] G4z4 | 
[V:2] GABcdefe/f/ | 
[V:3] DCB,A,B,2A,2 | 
[V:1] B4A2B2- | 
[V:2] g4d4 | 
[V:3] G,4F,2G,2- | 
[V:1] B2AGF4- | 
[V:2] z4B4 | 
[V:3] G,A,B,CD4 | 
[V:1] F4G4 | 
[V:2] A2B4AG | 
[V:3] D,2D4CB, | 
[V:1] A4AGFE | 
[V:2] F8 | 
[V:3] C8 | 
[V:1] D4DEFG | 
[V:2] G3AB2A2- | 
[V:3] B,3A,G,2D,E, | 
[V:1] ABcB/c/d4 | 
[V:2] AGFED4 | 
[V:3] F,G,A,2B,2A,D- | 
[V:1] d2c3B/A/G2 | 
[V:2] DEFGABcB/c/ | 
[V:3] DC/B,/A,3G,/F,/E,2 | 
[V:1] F2B3A/G/A2 | 
[V:2] d2B2c4 | 
[V:3] D,2G,2F,4 | 
[V:1] B3AGFG2- | 
[V:2] B8- | 
[V:3] G,3F,_E,D,E,2- | 
[V:1] GFGFD4- | 
[V:2] B8 | 
[V:3] E,D,_E,D,B,,4 | 
[V:1] D8 | 
[V:2] z2G2G2F2 | 
[V:3] B,,2B,3G,A,2 | 
[V:1] z2G2G2F2 | 
[V:2] G4A4 | 
[V:3] G,2F,E,D,4 | 
[V:1] G4A4 | 
[V:2] G4z2c2 | 
[V:3] z4D,4 | 
[V:1] G4z2G2 | 
[V:2] c2c2B4 | 
[V:3] C,3D,_E,2E,2 | 
[V:1] G2G2F4 | 
[V:2] BABcd4 | 
[V:3] _E,3D,B,,2B,2- | 
[V:1] FEFGA2G2- | 
[V:2] dcdef2e2- | 
[V:3] B,2A,G,F,2C,2- | 
[V:1] GFEDE4 | 
[V:2] edd4c2 | 
[V:3] C,D,E,F,G,2A,2 | 
[V:1] D4DEFG | 
[V:2] d2B4AG | 
[V:3] B,2G,4F,E, | 
[V:1] A2B3AA2- | 
[V:2] F2G4F2 | 
[V:3] D,2D3B,C2 | 
[V:1] A2G2A4- | 
[V:2] B4A4 | 
[V:3] D4D,2F,2- | 
[V:1] A4z2A2- | 
[V:2] z2c4c2 | 
[V:3] F,2F,2F,2F,2 | 
[V:1] A2A2A2A2 | 
[V:2] c2c2d4 | 
[V:3] F,3E,D,4 | 
[V:1] B4A2B2- | 
[V:2] dcdef2d2- | 
[V:3] G,4F,2G,2- | 
[V:1] B2AGFGAB | 
[V:2] d2cBA2FG | 
[V:3] G,D,F,G,D,4 | 
[V:1] c2GABcd2 | 
[V:2] ABc2GABc | 
[V:3] z2C,2G,4- | 
[V:1] DEFGABc2 | 
[V:2] d2DEFGAB | 
[V:3] G,2F,3E,/D,/C,2- | 
[V:1] G2B2ABAB | 
[V:2] c2BA/G/d3c/B/ | 
[V:3] C,2G,2D,3G, | 
[V:1] AB2A/G/F3G | 
[V:2] cGB2Ad2c/B/ | 
[V:3] F,E,G,2D,3G, | 
[V:1] ABG3^F/E/F2 | 
[V:2] cGB2A4 | 
[V:3] F,E,G,2D,4 | 
[V:1] G8 |]  
[V:2] G8 |]  
[V:3] G,8 |]  



